X:420
T: Joe Madden's Big Day
C: BB
R: reel
Q: 1/8=350
M: 4/4
L: 1/8
K: D
A|"D"d2 cd "Bm7"BAFE |"D"DEFA "Bm7"BAFA|"D"D2 (3FED "Bm7"FAAB|"D"defd "G"BGBc|
"D"d2 cd "Bm7"BAFE|"D"DEFD "Em"EB,B,A,|"D"DEFA "G"BedB|"A"AFEC "D"D3 :|
e|"Bm"fbaf "Em7"edde|"D"fded "G"BABc|"D"df (3fgf af (3fgf|"Bm"bafd "A"ecde|
"Bm"fbaf "Em7"edde|"D"fded "G"BGBc|"Bm"dBcA BAFA|"A"GECE "D"D3 :|

%%%%%%%%%%%%%%%%%%%%%%%%%%%%%%%%%%%%%%%%%%%

